client/public/icons/image.svg

<?xml version="1.0" encoding="UTF-8" standalone="no"?>
<svg xmlns:svg="http://www.w3.org/2000/svg" xmlns="http://www.w3.org/2000/svg" width="35.433071" height="35.433071" id="svg2" version="1.1"><g id="layer2"><path style="fill-opacity:1;fill-rule:evenodd;stroke:none" d="m 4,5.3125001 c -0.2453637,0 -0.46875,0.1921 -0.46875,0.4375 l 0,23.9374999 c 0,0.2454 0.2233863,0.4375 0.46875,0.4375 l 27.4375,0 c 0.245364,0 0.4375,-0.1921 0.4375,-0.4375 l 0,-23.9374999 c 0,-0.2454 -0.192136,-0.4375 -0.4375,-0.4375 l -27.4375,0 z m 3.53125,3.53125 20.375,0 c 0.245372,0 0.437456,0.22335 0.4375,0.46875 l 0,15.0624999 c -10.629922,0 -14.163386,-11.07705 -21.25,-2.21875 l 0,-12.8437499 c 1.364e-4,-0.2454 0.1921247,-0.46875 0.4375,-0.46875 z M 23.1875,10.1875 c -1.956915,0 -3.53125,1.605586 -3.53125,3.5625 0,1.956915 1.574335,3.53125 3.53125,3.53125 1.956914,0 3.5625,-1.574335 3.5625,-3.53125 l -0.0625,-0.53125 c -0.264718,-1.729802 -1.75006,-3.03125 -3.5,-3.03125 z" id="rect3010-9"></path></g></svg>

<?xml version="1.0" encoding="UTF-8" standalone="no"?>
<svg xmlns:svg="http://www.w3.org/2000/svg" xmlns="http://www.w3.org/2000/svg" width="35.433071" height="35.433071" id="svg2" version="1.1"><g id="layer1" transform="translate(0,-1016.9291)"><path style="fill-opacity:1;fill-rule:evenodd;stroke:none" d="M 4 5.3125 C 3.7546363 5.3125 3.53125 5.5046 3.53125 5.75 L 3.53125 29.6875 C 3.53125 29.9329 3.7546363 30.125 4 30.125 L 31.4375 30.125 C 31.682864 30.125 31.875 29.9329 31.875 29.6875 L 31.875 5.75 C 31.875 5.5046 31.682864 5.3125 31.4375 5.3125 L 4 5.3125 z M 7.53125 8.84375 L 27.90625 8.84375 C 28.151622 8.84375 28.343706 9.0671 28.34375 9.3125 L 28.34375 24.375 C 17.713828 24.375 14.180364 13.29795 7.09375 22.15625 L 7.09375 9.3125 C 7.0938864 9.0671 7.2858747 8.84375 7.53125 8.84375 z M 23.1875 10.1875 C 21.230585 10.1875 19.65625 11.793086 19.65625 13.75 C 19.65625 15.706915 21.230585 17.28125 23.1875 17.28125 C 25.144414 17.28125 26.75 15.706915 26.75 13.75 L 26.6875 13.21875 C 26.422782 11.488948 24.93744 10.1875 23.1875 10.1875 z " transform="translate(0,1016.9291)" id="rect3010"></path></g></svg>
